X:57
T:Highland Troop, The
T:An Trupa Ghaidhealach
R:Jig
S:Simon Fraser Collection
N:No.81
O:Scottish
M:6/8
L:1/8
K:G
B,/C/|DGG G2B|AGF GFE|DGG G2 (3g/f/e/|dcB cBA|DGG G2B|
AGF GF/E/D/C/|B,DG FAc|GBd G2 B,/C/|DGG G2B|AGF GFE|
DGG G2 (3g/f/e/|dcB cBA|DGG G2B|AGF GF/E/D/C/|B,DG FAc|
GBd G2:|
|:(3g/f/e/|dBB B2 (3g/f/e/|dBB B2 (3g/f/e/|dBG G>FG|FAA A2 (3g/f/e/|
dBB B2 (3g/f/e/|dBG g2 f/4e/4d/4c/4|Bdg fac'|gbd' g2 (3g/f/e/|
dBB B2 (3b/g/e/|dBB B2 (3g/f/e/|dBG G>FG|FAA A2 B/c/|dgb agf|
ga/g/f/e/ ~d2 (e/f/|g/)d/c/B/A/G/ A>GA|GBd G2:|

